X:1
T:Title
%%score { 1 | 2 }
L:1/8
M:3/4
K:Eb
V:1 treble nm="Grand Piano"
V:2 bass 
V:1
 z2 z2[Q:1/4=90] E>F | G3 G FE | G B3 cB | G3 E D>E |[M:2/4] [DF]4 |[M:1/4] E>F |[M:3/4] G3 G FE | %7
 G B3 cB | G3 E [A,DF]>[A,DF] |[M:2/4] [G,E]4 |[M:1/4] [EGB]>[EGB] | %11
[M:3/4] [EAc]3 [Ece] [EBd][EAc] | [Ac] [GB]3 [GB]>[GB] | [Ac]3 [GB] [GB]>[EG] |[M:2/4] [DF]4 | %15
[M:1/4] G>F |[M:3/4] E3 D EF | G B3 cB | G3 E [DF]>[DF] |[M:2/4] E4 |] %20
V:2
 z2 z2 [E,G,B,]>[E,A,B,] | [E,B,E]3 [E,B,E] [E,A,E][E,G,] | [E,B,E] [E,G,E]3 [E,A,E][E,G,E] | %3
 [E,B,E]3 [G,B,] [F,A,B,]>[E,G,B,] |[M:2/4] [B,,A,]4 |[M:1/4] [E,G,B,]>[E,A,B,] | %6
[M:3/4] [E,B,E]3 [E,B,E] [E,A,E][E,G,] | [E,B,E] [E,G,E]3 [E,A,E][E,G,E] | %8
 [E,B,E]3 [E,G,] B,,>B,, |[M:2/4] E,4 |[M:1/4] E,>E, |[M:3/4] A,3 A, A,A, | %12
 [E,E] [E,E]3 [E,E]>[E,E] | [E,E]3 [E,E] [E,B,]>[E,B,] |[M:2/4] [B,,B,]4 | %15
[M:1/4] [E,B,E]>[E,A,B,] |[M:3/4] [E,G,B,]3 [E,F,B,] [E,G,B,][E,A,B,] | %17
 [E,B,E] [E,G,E]3 [E,A,E][E,G,E] | [E,B,E]3 [E,G,] [B,,A,]>[B,,A,] |[M:2/4] [E,G,]4 |] %20

